X:7601
T:Tom Sullivan's
O:england
M:2/4
L:1/8
Q:300
C:Trad
R:polka
K:D
A|D/2E/2F/2G/2 AB|=cA AG|Ad dc|d2 d>e|
fd ed|cA A>B|cA GE|D3:|
d/2e/2|fd ed|cA Ad/2e/2|fd ef|g2 a>g|
fd ed|cA A>B|cA GE|D3:|


